doc/logo.svg

<svg xmlns="http://www.w3.org/2000/svg" width="359" height="80" fill="none"><path fill="#1A1" fill-rule="evenodd" d="M285.5 75.5H322L354 40 322 4h-36.5l32 36-32 35.5Z" clip-rule="evenodd"/><path fill="#000" d="M285.5 4H5v71.5h280.5l32-35.5-32-36Z"/><path fill="#F7A0A0" d="M34.132 61V35.784h-9.984v-6.272h9.984v-5.696c0-2.944.9387-5.2693 2.816-6.976 1.8773-1.7067 4.4373-2.56 7.68-2.56h10.304v6.144H44.756c-1.1947 0-2.1333.2987-2.816.896-.64.5973-.96 1.4507-.96 2.56v5.632h13.952v6.272H40.98V61h-6.848Z"/><path fill="#F7D4A0" d="M74.235 61.576c-2.9013 0-5.4187-.5547-7.552-1.664-2.1333-1.1093-3.776-2.688-4.928-4.736-1.152-2.048-1.728-4.4587-1.728-7.232v-9.088c0-2.816.576-5.2267 1.728-7.232 1.152-2.048 2.7947-3.6267 4.928-4.736 2.1333-1.1093 4.6507-1.664 7.552-1.664s5.4187.5547 7.552 1.664c2.1333 1.1093 3.776 2.688 4.928 4.736 1.152 2.0053 1.728 4.416 1.728 7.232v9.088c0 2.7733-.576 5.184-1.728 7.232-1.152 2.048-2.7947 3.6267-4.928 4.736-2.1333 1.1093-4.6507 1.664-7.552 1.664Zm0-6.08c2.3467 0 4.16-.64 5.44-1.92 1.28-1.3227 1.92-3.2 1.92-5.632v-9.088c0-2.4747-.64-4.352-1.92-5.632-1.28-1.28-3.0933-1.92-5.44-1.92-2.304 0-4.1173.64-5.44 1.92-1.28 1.28-1.92 3.1573-1.92 5.632v9.088c0 2.432.64 4.3093 1.92 5.632 1.3227 1.28 3.136 1.92 5.44 1.92Z"/><path fill="#B1F7A0" d="M109.026 61.64c-2.901 0-5.461-.5333-7.68-1.6-2.176-1.1093-3.8613-2.688-5.056-4.736-1.152-2.0907-1.728-4.5227-1.728-7.296v-9.216c0-2.816.576-5.248 1.728-7.296 1.1947-2.048 2.88-3.6053 5.056-4.672 2.219-1.1093 4.779-1.664 7.68-1.664 4.224 0 7.616 1.1093 10.176 3.328 2.56 2.2187 3.904 5.248 4.032 9.088h-6.912c-.128-2.0053-.832-3.5627-2.112-4.672-1.28-1.1093-3.008-1.664-5.184-1.664-2.347 0-4.203.6613-5.568 1.984-1.365 1.28-2.048 3.1147-2.048 5.504v9.28c0 2.3893.683 4.2453 2.048 5.568 1.365 1.3227 3.221 1.984 5.568 1.984 2.176 0 3.904-.5547 5.184-1.664 1.28-1.1093 1.984-2.6667 2.112-4.672h6.912c-.128 3.84-1.472 6.8693-4.032 9.088-2.56 2.2187-5.952 3.328-10.176 3.328Z"/><path fill="#A0F7C3" d="M143.241 61.64c-4.224 0-7.595-1.216-10.112-3.648-2.517-2.4747-3.776-5.824-3.776-10.048V25.8h6.912v22.144c0 2.432.619 4.3307 1.856 5.696 1.237 1.3227 2.944 1.984 5.12 1.984 2.219 0 3.947-.6613 5.184-1.984 1.28-1.3653 1.92-3.264 1.92-5.696V25.8h6.912v22.144c0 4.224-1.28 7.5733-3.84 10.048-2.517 2.432-5.909 3.648-10.176 3.648Z"/><path fill="#A0F7F7" d="M176.624 61.576c-2.517 0-4.736-.4053-6.656-1.216-1.877-.8107-3.371-1.92-4.48-3.328-1.067-1.4507-1.685-3.1573-1.856-5.12h6.912c.171 1.152.789 2.0907 1.856 2.816 1.067.6827 2.475 1.024 4.224 1.024h2.752c2.091 0 3.669-.4267 4.736-1.28 1.067-.8533 1.6-1.984 1.6-3.392 0-1.3653-.491-2.432-1.472-3.2-.939-.8107-2.347-1.344-4.224-1.6l-4.544-.704c-3.755-.5973-6.528-1.664-8.32-3.2-1.749-1.5787-2.624-3.904-2.624-6.976 0-3.2427 1.045-5.7387 3.136-7.488 2.133-1.792 5.269-2.688 9.408-2.688h2.432c3.669 0 6.592.8533 8.768 2.56 2.219 1.664 3.477 3.904 3.776 6.72h-6.912c-.171-1.024-.747-1.856-1.728-2.496-.939-.64-2.24-.96-3.904-.96h-2.432c-2.005 0-3.477.384-4.416 1.152-.896.7253-1.344 1.8133-1.344 3.264 0 1.28.405 2.24 1.216 2.88.811.64 2.069 1.088 3.776 1.344l4.672.768c3.968.5547 6.869 1.664 8.704 3.328 1.877 1.6213 2.816 3.9893 2.816 7.104 0 3.3707-1.109 5.9947-3.328 7.872-2.176 1.8773-5.44 2.816-9.792 2.816h-2.752Z"/><path fill="#A0C3F7" d="M212.375 61.64c-2.859 0-5.376-.5547-7.552-1.664-2.133-1.152-3.776-2.752-4.928-4.8-1.152-2.048-1.728-4.4373-1.728-7.168v-9.216c0-2.7733.576-5.1627 1.728-7.168 1.152-2.048 2.795-3.6267 4.928-4.736 2.176-1.152 4.693-1.728 7.552-1.728 2.901 0 5.419.576 7.552 1.728 2.133 1.1093 3.776 2.688 4.928 4.736 1.152 2.0053 1.728 4.3947 1.728 7.168v6.272h-21.76v2.944c0 2.6027.64 4.5867 1.92 5.952 1.323 1.3653 3.221 2.048 5.696 2.048 2.005 0 3.627-.3413 4.864-1.024 1.237-.7253 2.005-1.7707 2.304-3.136h6.848c-.512 2.9867-2.048 5.376-4.608 7.168-2.56 1.7493-5.717 2.624-9.472 2.624Zm7.552-20.736v-2.176c0-2.56-.64-4.544-1.92-5.952-1.28-1.408-3.157-2.112-5.632-2.112-2.432 0-4.309.704-5.632 2.112-1.28 1.408-1.92 3.4133-1.92 6.016v1.6l15.616-.064-.512.576Z"/><path fill="#B1A0F7" d="M244.414 61.64c-3.541 0-6.379-1.1947-8.512-3.584-2.133-2.3893-3.2-5.6107-3.2-9.664v-9.92c0-4.096 1.067-7.3387 3.2-9.728 2.133-2.3893 4.971-3.584 8.512-3.584 2.901 0 5.205.8107 6.912 2.432 1.707 1.5787 2.56 3.7547 2.56 6.528l-1.472-1.6h1.6l-.192-8.192V14.28h6.912V61h-6.848v-6.72h-1.472l1.472-1.6c0 2.7733-.853 4.9707-2.56 6.592-1.707 1.5787-4.011 2.368-6.912 2.368Zm2.368-6.016c2.176 0 3.883-.6613 5.12-1.984 1.28-1.3653 1.92-3.2427 1.92-5.632v-9.216c0-2.3893-.64-4.2453-1.92-5.568-1.237-1.3653-2.944-2.048-5.12-2.048-2.261 0-4.032.6613-5.312 1.984-1.28 1.28-1.92 3.1573-1.92 5.632v9.216c0 2.4747.64 4.3733 1.92 5.696 1.28 1.28 3.051 1.92 5.312 1.92Z"/></svg>

<svg width="359" height="80" viewBox="0 0 359 80" fill="none" xmlns="http://www.w3.org/2000/svg">
<path d="M322 4H41.5V75.5H322L354 40L322 4Z" fill="#11AA11"/>
<path d="M285.5 4H5V75.5H285.5L317.5 40L285.5 4Z" fill="black"/>
<path d="M34.132 61V35.784H24.148V29.512H34.132V23.816C34.132 20.872 35.0707 18.5467 36.948 16.84C38.8253 15.1333 41.3853 14.28 44.628 14.28H54.932V20.424H44.756C43.5613 20.424 42.6227 20.7227 41.94 21.32C41.3 21.9173 40.98 22.7707 40.98 23.88V29.512H54.932V35.784H40.98V61H34.132Z" fill="#F7A0A0"/>
<path d="M74.235 61.576C71.3337 61.576 68.8163 61.0213 66.683 59.912C64.5497 58.8027 62.907 57.224 61.755 55.176C60.603 53.128 60.027 50.7173 60.027 47.944V38.856C60.027 36.04 60.603 33.6293 61.755 31.624C62.907 29.576 64.5497 27.9973 66.683 26.888C68.8163 25.7787 71.3337 25.224 74.235 25.224C77.1363 25.224 79.6537 25.7787 81.787 26.888C83.9203 27.9973 85.563 29.576 86.715 31.624C87.867 33.6293 88.443 36.04 88.443 38.856V47.944C88.443 50.7173 87.867 53.128 86.715 55.176C85.563 57.224 83.9203 58.8027 81.787 59.912C79.6537 61.0213 77.1363 61.576 74.235 61.576ZM74.235 55.496C76.5817 55.496 78.395 54.856 79.675 53.576C80.955 52.2533 81.595 50.376 81.595 47.944V38.856C81.595 36.3813 80.955 34.504 79.675 33.224C78.395 31.944 76.5817 31.304 74.235 31.304C71.931 31.304 70.1177 31.944 68.795 33.224C67.515 34.504 66.875 36.3813 66.875 38.856V47.944C66.875 50.376 67.515 52.2533 68.795 53.576C70.1177 54.856 71.931 55.496 74.235 55.496Z" fill="#F7D4A0"/>
<path d="M109.026 61.64C106.125 61.64 103.565 61.1067 101.346 60.04C99.17 58.9307 97.4847 57.352 96.29 55.304C95.138 53.2133 94.562 50.7813 94.562 48.008V38.792C94.562 35.976 95.138 33.544 96.29 31.496C97.4847 29.448 99.17 27.8907 101.346 26.824C103.565 25.7147 106.125 25.16 109.026 25.16C113.25 25.16 116.642 26.2693 119.202 28.488C121.762 30.7067 123.106 33.736 123.234 37.576H116.322C116.194 35.5707 115.49 34.0133 114.21 32.904C112.93 31.7947 111.202 31.24 109.026 31.24C106.679 31.24 104.823 31.9013 103.458 33.224C102.093 34.504 101.41 36.3387 101.41 38.728V48.008C101.41 50.3973 102.093 52.2533 103.458 53.576C104.823 54.8987 106.679 55.56 109.026 55.56C111.202 55.56 112.93 55.0053 114.21 53.896C115.49 52.7867 116.194 51.2293 116.322 49.224H123.234C123.106 53.064 121.762 56.0933 119.202 58.312C116.642 60.5307 113.25 61.64 109.026 61.64Z" fill="#B1F7A0"/>
<path d="M143.241 61.64C139.017 61.64 135.646 60.424 133.129 57.992C130.612 55.5173 129.353 52.168 129.353 47.944V25.8H136.265V47.944C136.265 50.376 136.884 52.2747 138.121 53.64C139.358 54.9627 141.065 55.624 143.241 55.624C145.46 55.624 147.188 54.9627 148.425 53.64C149.705 52.2747 150.345 50.376 150.345 47.944V25.8H157.257V47.944C157.257 52.168 155.977 55.5173 153.417 57.992C150.9 60.424 147.508 61.64 143.241 61.64Z" fill="#A0F7C3"/>
<path d="M176.624 61.576C174.107 61.576 171.888 61.1707 169.968 60.36C168.091 59.5493 166.597 58.44 165.488 57.032C164.421 55.5813 163.803 53.8747 163.632 51.912H170.544C170.715 53.064 171.333 54.0027 172.4 54.728C173.467 55.4107 174.875 55.752 176.624 55.752H179.376C181.467 55.752 183.045 55.3253 184.112 54.472C185.179 53.6187 185.712 52.488 185.712 51.08C185.712 49.7147 185.221 48.648 184.24 47.88C183.301 47.0693 181.893 46.536 180.016 46.28L175.472 45.576C171.717 44.9787 168.944 43.912 167.152 42.376C165.403 40.7973 164.528 38.472 164.528 35.4C164.528 32.1573 165.573 29.6613 167.664 27.912C169.797 26.12 172.933 25.224 177.072 25.224H179.504C183.173 25.224 186.096 26.0773 188.272 27.784C190.491 29.448 191.749 31.688 192.048 34.504H185.136C184.965 33.48 184.389 32.648 183.408 32.008C182.469 31.368 181.168 31.048 179.504 31.048H177.072C175.067 31.048 173.595 31.432 172.656 32.2C171.76 32.9253 171.312 34.0133 171.312 35.464C171.312 36.744 171.717 37.704 172.528 38.344C173.339 38.984 174.597 39.432 176.304 39.688L180.976 40.456C184.944 41.0107 187.845 42.12 189.68 43.784C191.557 45.4053 192.496 47.7733 192.496 50.888C192.496 54.2587 191.387 56.8827 189.168 58.76C186.992 60.6373 183.728 61.576 179.376 61.576H176.624Z" fill="#A0F7F7"/>
<path d="M212.375 61.64C209.516 61.64 206.999 61.0853 204.823 59.976C202.69 58.824 201.047 57.224 199.895 55.176C198.743 53.128 198.167 50.7387 198.167 48.008V38.792C198.167 36.0187 198.743 33.6293 199.895 31.624C201.047 29.576 202.69 27.9973 204.823 26.888C206.999 25.736 209.516 25.16 212.375 25.16C215.276 25.16 217.794 25.736 219.927 26.888C222.06 27.9973 223.703 29.576 224.855 31.624C226.007 33.6293 226.583 36.0187 226.583 38.792V45.064H204.823V48.008C204.823 50.6107 205.463 52.5947 206.743 53.96C208.066 55.3253 209.964 56.008 212.439 56.008C214.444 56.008 216.066 55.6667 217.303 54.984C218.54 54.2587 219.308 53.2133 219.607 51.848H226.455C225.943 54.8347 224.407 57.224 221.847 59.016C219.287 60.7653 216.13 61.64 212.375 61.64ZM219.927 40.904V38.728C219.927 36.168 219.287 34.184 218.007 32.776C216.727 31.368 214.85 30.664 212.375 30.664C209.943 30.664 208.066 31.368 206.743 32.776C205.463 34.184 204.823 36.1893 204.823 38.792V40.392L220.439 40.328L219.927 40.904Z" fill="#A0C3F7"/>
<path d="M244.414 61.64C240.873 61.64 238.035 60.4453 235.902 58.056C233.769 55.6667 232.702 52.4453 232.702 48.392V38.472C232.702 34.376 233.769 31.1333 235.902 28.744C238.035 26.3547 240.873 25.16 244.414 25.16C247.315 25.16 249.619 25.9707 251.326 27.592C253.033 29.1707 253.886 31.3467 253.886 34.12L252.414 32.52H254.014L253.822 24.328V14.28H260.734V61H253.886V54.28H252.414L253.886 52.68C253.886 55.4533 253.033 57.6507 251.326 59.272C249.619 60.8507 247.315 61.64 244.414 61.64ZM246.782 55.624C248.958 55.624 250.665 54.9627 251.902 53.64C253.182 52.2747 253.822 50.3973 253.822 48.008V38.792C253.822 36.4027 253.182 34.5467 251.902 33.224C250.665 31.8587 248.958 31.176 246.782 31.176C244.521 31.176 242.75 31.8373 241.47 33.16C240.19 34.44 239.55 36.3173 239.55 38.792V48.008C239.55 50.4827 240.19 52.3813 241.47 53.704C242.75 54.984 244.521 55.624 246.782 55.624Z" fill="#B1A0F7"/>
</svg>
